!!!SOCIAL_FUNCTION:	war songs
!!!PDT:	1939
!!!OTL: No_104_Song_of_a_Head_Hunter.krn
!!!LANG: Non-Tone
!!!LING_GROUP: Wakashan
!!!REG: Pacific Northwest
**kern
*staff1
=1-
*clefF4
*k[]
*M2/4
(2F\
=2
2F\)
=3
2F\
=4
2F\
=5
2r
=6
8F\L
[8G\J
4G\]
=7
2G\
=8
4r
8r
16r
16F\
=9!|:
4F\
8r
16r
16G\
=10
2G\
=11
8G\L
8G\J
4r
=12
8G\L
8G\J
4r
=13
[2F\
=14
2F\]
=15
4C/
4C/
=16
4C/
4r
=17
4F\
8G\L
8F\J
=18
4F\
4r
=19
4F\
8r
16r
16C/
=20
4C/
4r
=21
2F\
=22
4F\
8F\
8r
=23
4F\
8F\
8r
=24
2F\
=25
2G\
=26
2G\
=27
4F\
8A\L
8G\J
=28
2G\
=29
4G\
8r
16r
16F\
==:|!
*-
